;FLAVOR:UltiGCode
;TIME:1115
;MATERIAL:2826
;MATERIAL2:0
;NOZZLE_DIAMETER:0.4
;MINX:72.269
;MINY:93.625
;MINZ:0.27
;MAXX:150.75
;MAXY:129.375
;MAXZ:2.87
;Generated with Cura_SteamEngine 4.8.0
M82 ;absolute extrusion mode
G0 F3000 Y50 ;avoid prime blob
G92 E0
G92 E0
G10
;LAYER_COUNT:14
;LAYER:0
M107
G0 F4320 X76.776 Y101.303 Z0.27
;TYPE:SKIRT
G11
G1 F2700 X77.209 Y100.984 E0.05082
G1 X78.19 Y100.367 E0.16034
G1 X78.667 Y100.114 E0.21136
G1 X79.696 Y99.659 E0.31769
G1 X80.203 Y99.477 E0.36859
G1 X81.294 Y99.172 E0.47564
G1 X81.825 Y99.064 E0.52685
G1 X82.94 Y98.919 E0.63311
G1 X83.227 Y98.902 E0.66028
G1 X83.613 Y98.485 E0.71397
G1 X84.047 Y98.052 E0.77191
G1 X84.668 Y97.478 E0.85182
G1 X85.128 Y97.084 E0.90906
G1 X85.788 Y96.562 E0.98858
G1 X86.296 Y96.192 E1.04797
G1 X86.999 Y95.722 E1.12788
G1 X87.503 Y95.412 E1.1838
G1 X88.236 Y94.998 E1.26335
G1 X88.798 Y94.71 E1.32303
G1 X89.564 Y94.355 E1.40281
G1 X90.299 Y94.058 E1.47772
G1 X91.061 Y93.837 E1.5527
G1 X91.842 Y93.693 E1.62775
G1 X92.875 Y93.625 E1.72558
G1 X137.902 Y93.626 E5.98063
G1 X138.381 Y93.641 E6.02592
G1 X138.955 Y93.676 E6.08026
G1 X139.903 Y93.791 E6.1705
G1 X140.5 Y93.901 E6.22787
G1 X141.41 Y94.126 E6.31645
G1 X141.986 Y94.305 E6.37345
G1 X142.88 Y94.643 E6.46377
G1 X143.429 Y94.89 E6.52066
G1 X144.282 Y95.339 E6.61176
G1 X144.798 Y95.652 E6.66879
G1 X145.559 Y96.177 E6.75615
G1 X146.037 Y96.55 E6.81345
G1 X146.76 Y97.19 E6.9047
G1 X147.185 Y97.615 E6.9615
G1 X147.825 Y98.338 E7.05274
G1 X148.198 Y98.816 E7.11004
G1 X148.722 Y99.575 E7.1972
G1 X149.034 Y100.089 E7.25402
G1 X149.483 Y100.943 E7.3452
G1 X149.731 Y101.494 E7.4023
G1 X150.07 Y102.389 E7.49274
G1 X150.249 Y102.965 E7.54974
G1 X150.474 Y103.875 E7.63832
G1 X150.584 Y104.472 E7.69569
G1 X150.7 Y105.427 E7.7866
G1 X150.736 Y106.027 E7.8434
G1 X150.75 Y106.5 E7.88812
G1 X150.749 Y116.528 E8.83577
G1 X150.734 Y117.006 E8.88096
G1 X150.699 Y117.58 E8.9353
G1 X150.584 Y118.528 E9.02555
G1 X150.474 Y119.125 E9.08291
G1 X150.251 Y120.03 E9.17099
G1 X150.073 Y120.604 E9.22778
G1 X149.732 Y121.504 E9.31873
G1 X149.484 Y122.055 E9.37583
G1 X149.036 Y122.907 E9.4668
G1 X148.723 Y123.423 E9.52383
G1 X148.201 Y124.18 E9.61073
G1 X147.83 Y124.656 E9.66776
G1 X147.187 Y125.383 E9.75948
G1 X146.76 Y125.81 E9.81654
G1 X146.037 Y126.45 E9.90779
G1 X145.559 Y126.823 E9.96508
G1 X144.8 Y127.347 E10.05224
G1 X144.286 Y127.659 E10.10906
G1 X143.432 Y128.108 E10.20024
G1 X142.881 Y128.356 E10.25734
G1 X141.986 Y128.695 E10.34778
G1 X141.41 Y128.874 E10.40478
G1 X140.5 Y129.099 E10.49337
G1 X139.903 Y129.209 E10.55073
G1 X138.947 Y129.325 E10.64174
G1 X138.346 Y129.361 E10.69863
G1 X137.875 Y129.375 E10.74316
G1 X92.875 Y129.375 E14.99566
G1 X92.083 Y129.335 E15.0706
G1 X91.298 Y129.216 E15.14563
G1 X90.53 Y129.018 E15.22058
G1 X89.538 Y128.633 E15.32114
G1 X88.713 Y128.247 E15.40721
G1 X88.129 Y127.943 E15.46943
G1 X87.34 Y127.49 E15.55541
G1 X86.775 Y127.134 E15.61851
G1 X86.029 Y126.617 E15.70429
G1 X85.503 Y126.218 E15.76668
G1 X84.8 Y125.638 E15.8528
G1 X84.313 Y125.201 E15.91463
G1 X83.661 Y124.565 E16.00071
G1 X83.2 Y124.076 E16.06421
G1 X82.604 Y123.386 E16.15038
G1 X82.197 Y122.872 E16.21233
G1 X81.662 Y122.137 E16.29824
G1 X81.482 Y121.866 E16.32899
G1 X81.208 Y121.808 E16.35545
G1 X80.108 Y121.49 E16.46366
G1 X79.607 Y121.305 E16.51413
G1 X78.595 Y120.848 E16.61906
G1 X78.117 Y120.59 E16.67039
G1 X77.16 Y119.981 E16.77759
G1 X76.728 Y119.66 E16.82845
G1 X75.864 Y118.915 E16.93626
G1 X75.482 Y118.534 E16.98724
G1 X74.738 Y117.676 E17.09456
G1 X74.417 Y117.247 E17.14519
G1 X73.805 Y116.293 E17.2523
G1 X73.546 Y115.817 E17.30351
G1 X73.085 Y114.805 E17.4086
G1 X72.897 Y114.301 E17.45944
G1 X72.575 Y113.2 E17.56784
G1 X72.462 Y112.673 E17.61877
G1 X72.306 Y111.566 E17.72442
G1 X72.269 Y111.032 E17.775
G1 X72.273 Y109.891 E17.88283
G1 X72.314 Y109.352 E17.93391
G1 X72.479 Y108.239 E18.04024
G1 X72.596 Y107.713 E18.09116
G1 X72.928 Y106.61 E18.20001
G1 X73.12 Y106.108 E18.2508
G1 X73.583 Y105.111 E18.35468
G1 X73.845 Y104.637 E18.40586
G1 X74.471 Y103.678 E18.51409
G1 X74.796 Y103.251 E18.5648
G1 X75.552 Y102.393 E18.67286
G1 X75.937 Y102.016 E18.72378
G1 X76.776 Y101.303 E18.82783
G0 F4320 X76.984 Y101.585
G1 F2700 X77.417 Y101.266 E18.87866
G1 X78.354 Y100.676 E18.98329
G1 X78.831 Y100.423 E19.03432
G1 X79.815 Y99.989 E19.13595
G1 X80.322 Y99.807 E19.18685
G1 X81.364 Y99.515 E19.28912
G1 X81.895 Y99.407 E19.34032
G1 X82.961 Y99.269 E19.4419
G1 X83.387 Y99.244 E19.48223
G1 X83.87 Y98.723 E19.54936
G1 X84.284 Y98.309 E19.60469
G1 X84.905 Y97.735 E19.68461
G1 X85.345 Y97.359 E19.7393
G1 X86.005 Y96.837 E19.81882
G1 X86.491 Y96.483 E19.87564
G1 X87.194 Y96.013 E19.95555
G1 X87.675 Y95.717 E20.00892
G1 X88.408 Y95.303 E20.08848
G1 X88.945 Y95.028 E20.14549
G1 X89.711 Y94.673 E20.22527
G1 X90.43 Y94.383 E20.29854
G1 X91.176 Y94.169 E20.37188
G1 X91.94 Y94.033 E20.44521
G1 X92.875 Y93.975 E20.53374
G1 X137.902 Y93.976 E24.78879
G1 X138.36 Y93.99 E24.83209
G1 X138.934 Y94.025 E24.88643
G1 X139.84 Y94.136 E24.97269
G1 X140.437 Y94.246 E25.03006
G1 X141.306 Y94.46 E25.11463
G1 X141.882 Y94.639 E25.17163
G1 X142.736 Y94.963 E25.25795
G1 X143.285 Y95.21 E25.31484
G1 X144.101 Y95.638 E25.40191
G1 X144.617 Y95.951 E25.45894
G1 X145.343 Y96.452 E25.5423
G1 X145.821 Y96.825 E25.5996
G1 X146.513 Y97.437 E25.6869
G1 X146.938 Y97.862 E25.7437
G1 X147.55 Y98.554 E25.83099
G1 X147.923 Y99.032 E25.88829
G1 X148.423 Y99.756 E25.97144
G1 X148.735 Y100.27 E26.02826
G1 X149.164 Y101.086 E26.11538
G1 X149.412 Y101.637 E26.17248
G1 X149.736 Y102.493 E26.25897
G1 X149.915 Y103.069 E26.31597
G1 X150.129 Y103.938 E26.40055
G1 X150.239 Y104.535 E26.45791
G1 X150.35 Y105.448 E26.54483
G1 X150.386 Y106.048 E26.60163
G1 X150.4 Y106.5 E26.64436
G1 X150.399 Y116.528 E27.59201
G1 X150.385 Y116.985 E27.63522
G1 X150.35 Y117.559 E27.68956
G1 X150.239 Y118.465 E27.77582
G1 X150.129 Y119.062 E27.83318
G1 X149.916 Y119.927 E27.91737
G1 X149.738 Y120.501 E27.97416
G1 X149.413 Y121.361 E28.06104
G1 X149.165 Y121.912 E28.11814
G1 X148.737 Y122.726 E28.20505
G1 X148.424 Y123.242 E28.26208
G1 X147.925 Y123.965 E28.34509
G1 X147.554 Y124.441 E28.40213
G1 X146.94 Y125.136 E28.48976
G1 X146.513 Y125.563 E28.54683
G1 X145.821 Y126.175 E28.63413
G1 X145.343 Y126.548 E28.69142
G1 X144.619 Y127.048 E28.77457
G1 X144.105 Y127.36 E28.83139
G1 X143.289 Y127.789 E28.91851
G1 X142.738 Y128.037 E28.97561
G1 X141.882 Y128.361 E29.06211
G1 X141.306 Y128.54 E29.11911
G1 X140.437 Y128.754 E29.20368
G1 X139.84 Y128.864 E29.26105
G1 X138.926 Y128.976 E29.34806
G1 X138.325 Y129.012 E29.40496
G1 X137.875 Y129.025 E29.4475
G1 X92.875 Y129.025 E33.7
G1 X92.1 Y128.985 E33.77334
G1 X91.334 Y128.866 E33.84659
G1 X90.584 Y128.668 E33.9199
G1 X89.686 Y128.316 E34.01104
G1 X88.861 Y127.93 E34.09712
G1 X88.303 Y127.64 E34.15655
G1 X87.514 Y127.187 E34.24252
G1 X86.975 Y126.846 E34.30279
G1 X86.229 Y126.329 E34.38857
G1 X85.726 Y125.948 E34.4482
G1 X85.023 Y125.368 E34.53432
G1 X84.558 Y124.951 E34.59335
G1 X83.906 Y124.315 E34.67942
G1 X83.465 Y123.847 E34.74019
G1 X82.869 Y123.157 E34.82635
G1 X82.48 Y122.666 E34.88554
G1 X81.945 Y121.931 E34.97145
G1 X81.693 Y121.552 E35.01446
G1 X81.28 Y121.465 E35.05435
G1 X80.229 Y121.162 E35.15771
G1 X79.728 Y120.977 E35.20818
G1 X78.761 Y120.54 E35.30846
G1 X78.283 Y120.282 E35.35979
G1 X77.369 Y119.7 E35.46219
G1 X76.937 Y119.379 E35.51305
G1 X76.111 Y118.667 E35.6161
G1 X75.729 Y118.286 E35.66709
G1 X75.018 Y117.466 E35.76965
G1 X74.697 Y117.037 E35.82028
G1 X74.112 Y116.126 E35.9226
G1 X73.853 Y115.65 E35.97381
G1 X73.413 Y114.683 E36.0742
G1 X73.225 Y114.179 E36.12504
G1 X72.917 Y113.127 E36.22862
G1 X72.804 Y112.6 E36.27956
G1 X72.655 Y111.542 E36.38052
G1 X72.618 Y111.008 E36.43111
G1 X72.622 Y109.917 E36.53421
G1 X72.663 Y109.378 E36.58529
G1 X72.821 Y108.315 E36.68685
G1 X72.938 Y107.789 E36.73777
G1 X73.255 Y106.735 E36.84178
G1 X73.447 Y106.233 E36.89257
G1 X73.889 Y105.281 E36.99176
G1 X74.151 Y104.807 E37.04294
G1 X74.749 Y103.889 E37.14647
G1 X75.074 Y103.462 E37.19718
G1 X75.797 Y102.643 E37.30042
G1 X76.182 Y102.266 E37.35134
G1 X76.984 Y101.585 E37.45077
G0 F4320 X77.191 Y101.866
G1 F2700 X77.624 Y101.547 E37.50159
G1 X78.518 Y100.985 E37.60138
G1 X78.995 Y100.732 E37.65241
G1 X79.933 Y100.318 E37.7493
G1 X80.44 Y100.136 E37.8002
G1 X81.434 Y99.858 E37.89774
G1 X81.965 Y99.75 E37.94895
G1 X82.981 Y99.618 E38.04576
G1 X83.517 Y99.587 E38.0965
G1 X83.554 Y99.58 E38.10006
G1 X84.127 Y98.961 E38.17977
G1 X84.522 Y98.566 E38.23256
G1 X85.143 Y97.992 E38.31247
G1 X85.562 Y97.633 E38.36461
G1 X86.222 Y97.111 E38.44413
G1 X86.685 Y96.774 E38.49825
G1 X87.388 Y96.304 E38.57816
G1 X87.847 Y96.022 E38.62907
G1 X88.58 Y95.608 E38.70862
G1 X89.092 Y95.345 E38.76302
G1 X89.858 Y94.99 E38.8428
G1 X90.561 Y94.708 E38.91438
G1 X91.29 Y94.502 E38.98597
G1 X92.036 Y94.374 E39.0575
G1 X92.875 Y94.325 E39.13692
G1 X137.902 Y94.326 E43.39197
G1 X138.339 Y94.339 E43.43328
G1 X138.913 Y94.374 E43.48763
G1 X139.776 Y94.48 E43.56979
G1 X140.373 Y94.59 E43.62716
G1 X141.202 Y94.794 E43.70784
G1 X141.778 Y94.973 E43.76484
G1 X142.593 Y95.282 E43.8472
G1 X143.142 Y95.529 E43.90409
G1 X143.919 Y95.937 E43.98703
G1 X144.435 Y96.25 E44.04406
G1 X145.128 Y96.728 E44.12361
G1 X145.606 Y97.101 E44.18091
G1 X146.265 Y97.685 E44.26412
G1 X146.69 Y98.11 E44.32092
G1 X147.274 Y98.769 E44.40413
G1 X147.647 Y99.247 E44.46143
G1 X148.123 Y99.938 E44.54072
G1 X148.435 Y100.452 E44.59754
G1 X148.845 Y101.23 E44.68065
G1 X149.093 Y101.781 E44.73775
G1 X149.402 Y102.597 E44.8202
G1 X149.581 Y103.173 E44.8772
G1 X149.785 Y104.002 E44.95788
G1 X149.895 Y104.599 E45.01525
G1 X150.001 Y105.469 E45.09807
G1 X150.037 Y106.069 E45.15487
G1 X150.05 Y106.5 E45.19562
G1 X150.049 Y116.528 E46.14326
G1 X150.036 Y116.964 E46.18449
G1 X150.001 Y117.538 E46.23883
G1 X149.895 Y118.401 E46.321
G1 X149.785 Y118.998 E46.37836
G1 X149.582 Y119.823 E46.45865
G1 X149.404 Y120.397 E46.51544
G1 X149.094 Y121.217 E46.59828
G1 X148.846 Y121.768 E46.65538
G1 X148.438 Y122.544 E46.73823
G1 X148.125 Y123.06 E46.79527
G1 X147.649 Y123.75 E46.87448
G1 X147.278 Y124.226 E46.93151
G1 X146.692 Y124.888 E47.01506
G1 X146.265 Y125.315 E47.07213
G1 X145.606 Y125.899 E47.15534
G1 X145.128 Y126.272 E47.21263
G1 X144.437 Y126.748 E47.29193
G1 X143.923 Y127.06 E47.34875
G1 X143.145 Y127.47 E47.43185
G1 X142.594 Y127.718 E47.48895
G1 X141.778 Y128.027 E47.57141
G1 X141.202 Y128.206 E47.62841
G1 X140.373 Y128.41 E47.70909
G1 X139.776 Y128.52 E47.76645
G1 X138.905 Y128.626 E47.84937
G1 X138.304 Y128.662 E47.90627
G1 X137.875 Y128.675 E47.94682
G1 X92.875 Y128.675 E52.19932
G1 X92.119 Y128.635 E52.27087
G1 X91.371 Y128.516 E52.34244
G1 X90.64 Y128.318 E52.41401
G1 X89.834 Y127.999 E52.49593
G1 X89.009 Y127.613 E52.582
G1 X88.477 Y127.336 E52.63868
G1 X87.688 Y126.883 E52.72466
G1 X87.174 Y126.558 E52.78212
G1 X86.428 Y126.041 E52.8679
G1 X85.949 Y125.679 E52.92463
G1 X85.246 Y125.099 E53.01076
G1 X84.802 Y124.7 E53.06717
G1 X84.15 Y124.064 E53.15324
G1 X83.73 Y123.618 E53.21114
G1 X83.134 Y122.928 E53.2973
G1 X82.763 Y122.46 E53.35373
G1 X82.228 Y121.725 E53.43964
G1 X81.904 Y121.238 E53.49492
G1 X81.353 Y121.123 E53.54811
G1 X80.351 Y120.834 E53.64666
G1 X79.85 Y120.649 E53.69713
G1 X78.927 Y120.232 E53.79284
G1 X78.449 Y119.974 E53.84417
G1 X77.578 Y119.419 E53.94177
G1 X77.146 Y119.098 E53.99263
G1 X76.358 Y118.419 E54.09093
G1 X75.976 Y118.038 E54.14191
G1 X75.298 Y117.257 E54.23965
G1 X74.977 Y116.828 E54.29028
G1 X74.42 Y115.958 E54.3879
G1 X74.161 Y115.482 E54.43911
G1 X73.74 Y114.561 E54.53481
G1 X73.552 Y114.057 E54.58564
G1 X73.259 Y113.053 E54.68448
G1 X73.146 Y112.526 E54.73541
G1 X73.004 Y111.518 E54.83161
G1 X72.967 Y110.984 E54.88219
G1 X72.971 Y109.944 E54.98047
G1 X73.012 Y109.405 E55.03156
G1 X73.162 Y108.391 E55.12842
G1 X73.279 Y107.865 E55.17934
G1 X73.581 Y106.86 E55.27851
G1 X73.773 Y106.358 E55.3293
G1 X74.195 Y105.45 E55.42392
G1 X74.457 Y104.976 E55.4751
G1 X75.028 Y104.101 E55.57384
G1 X75.353 Y103.674 E55.62455
G1 X76.042 Y102.894 E55.7229
G1 X76.427 Y102.517 E55.77382
G1 X77.191 Y101.866 E55.86867
G0 F4320 X77.399 Y102.148
G1 F2700 X77.832 Y101.829 E55.9195
G1 X78.682 Y101.295 E56.01436
G1 X79.159 Y101.042 E56.06538
G1 X80.051 Y100.647 E56.15757
G1 X80.558 Y100.465 E56.20848
G1 X81.504 Y100.201 E56.30129
G1 X82.035 Y100.093 E56.3525
G1 X83.001 Y99.967 E56.44456
G1 X83.537 Y99.936 E56.49529
G1 X83.707 Y99.939 E56.51136
G1 X83.81 Y99.818 E56.52638
G1 X84.383 Y99.199 E56.60609
G1 X84.759 Y98.823 E56.65634
G1 X85.38 Y98.249 E56.73625
G1 X85.779 Y97.908 E56.78585
G1 X86.439 Y97.386 E56.86537
G1 X86.88 Y97.065 E56.91692
G1 X87.583 Y96.595 E56.99683
G1 X88.02 Y96.326 E57.04532
G1 X88.753 Y95.912 E57.12488
G1 X89.239 Y95.663 E57.17648
G1 X90.005 Y95.308 E57.25626
G1 X90.691 Y95.034 E57.32607
G1 X91.403 Y94.836 E57.39591
G1 X92.132 Y94.716 E57.46572
G1 X92.875 Y94.675 E57.53604
G1 X137.902 Y94.676 E61.7911
G1 X138.317 Y94.689 E61.83033
G1 X138.891 Y94.724 E61.88468
G1 X139.713 Y94.824 E61.96293
G1 X140.31 Y94.934 E62.02029
G1 X141.098 Y95.128 E62.09698
G1 X141.674 Y95.307 E62.15398
G1 X142.449 Y95.601 E62.23231
G1 X142.998 Y95.848 E62.2892
G1 X143.738 Y96.237 E62.36821
G1 X144.254 Y96.55 E62.42524
G1 X144.913 Y97.004 E62.50086
G1 X145.391 Y97.377 E62.55816
G1 X146.018 Y97.932 E62.63729
G1 X146.443 Y98.357 E62.69409
G1 X146.998 Y98.984 E62.77322
G1 X147.371 Y99.462 E62.83051
G1 X147.824 Y100.12 E62.906
G1 X148.136 Y100.634 E62.96283
G1 X148.526 Y101.374 E63.04187
G1 X148.774 Y101.925 E63.09897
G1 X149.068 Y102.701 E63.17739
G1 X149.247 Y103.277 E63.23439
G1 X149.441 Y104.065 E63.31108
G1 X149.551 Y104.662 E63.36845
G1 X149.652 Y105.49 E63.44727
G1 X149.688 Y106.09 E63.50408
G1 X149.7 Y106.5 E63.54284
G1 X149.699 Y116.528 E64.49048
G1 X149.686 Y116.942 E64.52963
G1 X149.651 Y117.516 E64.58397
G1 X149.551 Y118.338 E64.66222
G1 X149.441 Y118.935 E64.71959
G1 X149.248 Y119.719 E64.79589
G1 X149.07 Y120.293 E64.85268
G1 X148.775 Y121.073 E64.93148
G1 X148.527 Y121.624 E64.98858
G1 X148.138 Y122.363 E65.0675
G1 X147.825 Y122.879 E65.12454
G1 X147.373 Y123.535 E65.19982
G1 X147.002 Y124.011 E65.25685
G1 X146.445 Y124.641 E65.33632
G1 X146.018 Y125.068 E65.39338
G1 X145.391 Y125.623 E65.47251
G1 X144.913 Y125.996 E65.52981
G1 X144.255 Y126.449 E65.6053
G1 X143.741 Y126.761 E65.66212
G1 X143.001 Y127.151 E65.74117
G1 X142.45 Y127.399 E65.79827
G1 X141.674 Y127.693 E65.87669
G1 X141.098 Y127.872 E65.93369
G1 X140.31 Y128.066 E66.01038
G1 X139.713 Y128.176 E66.06774
G1 X138.884 Y128.277 E66.14666
G1 X138.283 Y128.313 E66.20356
G1 X137.875 Y128.325 E66.24213
G1 X92.875 Y128.325 E70.49463
G1 X92.137 Y128.285 E70.56448
G1 X91.409 Y128.166 E70.63418
G1 X90.697 Y127.968 E70.70402
G1 X89.983 Y127.682 E70.77671
G1 X89.158 Y127.296 E70.86278
G1 X88.652 Y127.033 E70.91667
G1 X87.863 Y126.58 E71.00265
G1 X87.373 Y126.271 E71.05739
G1 X86.627 Y125.754 E71.14316
G1 X86.172 Y125.409 E71.19712
G1 X85.469 Y124.829 E71.28325
G1 X85.046 Y124.45 E71.33692
G1 X84.394 Y123.814 E71.42299
G1 X83.995 Y123.389 E71.47808
G1 X83.399 Y122.699 E71.56424
G1 X83.046 Y122.255 E71.61784
G1 X82.511 Y121.52 E71.70375
G1 X82.193 Y121.041 E71.75809
G1 X82.117 Y120.915 E71.77199
G1 X81.955 Y120.893 E71.78744
G1 X81.425 Y120.781 E71.83863
G1 X80.472 Y120.505 E71.93239
G1 X79.971 Y120.32 E71.98286
G1 X79.093 Y119.924 E72.07388
G1 X78.615 Y119.666 E72.12521
G1 X77.786 Y119.138 E72.21809
G1 X77.354 Y118.817 E72.26895
G1 X76.605 Y118.171 E72.36242
G1 X76.223 Y117.79 E72.41341
